X: 11152
T: The YORKSHIRE BITE; or JOHN BULL
O: Old English air.
Q: "Humourously."
%R: air, jig
B: W. Hamilton "Universal Tune-Book" Vol. 1 Glasgow 1844 p.115 #2
S: http://imslp.org/wiki/Hamilton's_Universal_Tune-Book_(Various)
Z: 2016 John Chambers <jc:trillian.mit.edu>
M: 6/8
L: 1/8
K: D
% - - - - - - - - - - - - - - - - - - - - - - - - -
d |\
dAG FEF | DFA d2d | dAG FEF | DFA d2d |\
dfd edc | Bed c2B | A>Bc dAG | FDF A2 G/F/ |\
EEF G3 | FED AGF | BBc dAF | GEA D2 |]
% - - - - - - - - - - - - - - - - - - - - - - - - -

%%sep 1 1 500
%%sep 1 1 500

